X:5
T:Kiltimagh Jig (D whistle)
M:6/8
S:L. Nugent #1 Trk 9
R:double jig
Z:ka
K:G
|: F| GBd edB | ded dBA | GBd edB |~A2A AGE |
GBd edB | ded def | g2e dBA|1 BGF G3|2 BGF GBd:|
|: gdd edB| ded def| gdd edB| ABA ABd|
gdd edB| ded def| gdB AGA| BGF G2:|
